X:1
T: Lochiel's March
C:
R:Reel
Q: 232
K:Em
M:4/4
L:1/8
|:gf|e2 A2 A2 Bd|ed ef ge dB|G2 G2 B2 AG|B2 d2 d2 gf|
e2 A2 A2 Bd|ed ef ge dB|A2 A2 B2 AG|g2 e2 e2:|
|:d2|dB de g2 fe|ab ag gf ed|g2 d2 ed cB|g2 d2 d2|
|1e2|dB de g2 fe|ab ag gf ed|g2 e2 fe de|g2 e2 e2:|
|2fg|a2 fa g2 eg|f2 df fe dB|A2 A2 cB AG|g2 e2 e2||
